X: 1
T: the Deveron Reel
C: Iain MacFadyen
B: Ceol na Fidhle v.3
R: reel, march
Z: 2006 John Chambers <jc:trillian.mit.edu>
M: C|
L: 1/4
K: D
   F/E/ \
| "D"DD F/E/D/F/ | AA B/A/F/A/ |    dd     f/e/d/e/ | "Em"fe "A7"e2 \
| "D"DD F/E/D/F/ | AA B/A/F/A/ | "D"df "A7"e/f/g/a/ |  "D"fd     d :|
|: d/e/ \
| "D"ff     d/e/f/d/ | "A"eA A>A | "G"BB           G/A/B/G/ | "D"AD D>D \
| "G"GG "A7"E/F/G/E/ | "D"FA d>c | "G"B/A/G/F/ "A7"E/F/G/A/ | "D"FD D :|
